packages/katcn/src/icons/svg/layout7-solid.svg

<svg width="24" height="25" viewBox="0 0 24 25" fill="none" xmlns="http://www.w3.org/2000/svg">
<path d="M6.3 2.40002H14.3V8.10002H2V6.70002C2 4.30002 3.9 2.40002 6.3 2.40002Z" fill="black"/>
<path d="M2 10.1H14.3V22.4H6.3C3.9 22.4 2 20.5 2 18.1V10.1Z" fill="black"/>
<path d="M22 6.70002V14.7H16.3V2.40002H17.8C20.1 2.40002 22 4.30002 22 6.70002Z" fill="black"/>
<path d="M16.3 16.7H22V18.2C22 20.5 20.1 22.5 17.7 22.5H16.2V16.7H16.3Z" fill="black"/>
</svg>

<svg xmlns="http://www.w3.org/2000/svg" fill="none" viewBox="0 0 24 25"><path fill="#000" d="M6.3 2.4h8v5.7H2V6.7c0-2.4 1.9-4.3 4.3-4.3M2 10.1h12.3v12.3h-8c-2.4 0-4.3-1.9-4.3-4.3zm20-3.4v8h-5.7V2.4h1.5c2.3 0 4.2 1.9 4.2 4.3m-5.7 10H22v1.5c0 2.3-1.9 4.3-4.3 4.3h-1.5v-5.8z"/></svg>
